assets/images/icon-photos-album.svg

<svg xmlns="http://www.w3.org/2000/svg" xmlns:xlink="http://www.w3.org/1999/xlink" width="48" height="48" viewBox="0 0 48 48">
  <defs>
    <path id="a" d="M0,0 L32,0 L32,26 L0,26 L0,0 Z M0,0 L0,20 L23,20 C24.6568542,20 26,18.6568542 26,17 L26,0 L0,0 Z"/>
    <path id="c" d="M0,0 L32,0 L32,26 L0,26 L0,0 Z M0,0 L0,20 L23,20 C24.6568542,20 26,18.6568542 26,17 L26,0 L0,0 Z"/>
  </defs>
  <g fill="none" fill-rule="evenodd">
    <g transform="translate(8 11)">
      <mask id="b" fill="white">
        <use xlink:href="#a"/>
      </mask>
      <rect width="32" height="26" fill="#8EE39B" mask="url(#b)" rx="2"/>
      <path fill="#1EC737" d="M0,20 L6.29028051,13.7097195 C6.68224776,13.3177522 7.31387329,13.3138733 7.70591205,13.7059121 L11,17 L19.2937851,8.7062149 C19.6838168,8.31618318 20.320971,8.32097101 20.7058543,8.70585426 L32,20 L32,24.0020869 C32,25.1055038 31.1107383,26 29.9982567,26 L2.00174332,26 C0.89621101,26 0,25.1017394 0,24.0020869 L0,20 Z" mask="url(#b)"/>
    </g>
    <g transform="translate(16 19)">
      <mask id="d" fill="white">
        <use xlink:href="#c"/>
      </mask>
      <rect width="32" height="26" fill="#8EE39B" mask="url(#d)" rx="2"/>
      <path fill="#1EC737" d="M0,20 L6.29028051,13.7097195 C6.68224776,13.3177522 7.31387329,13.3138733 7.70591205,13.7059121 L11,17 L19.2937851,8.7062149 C19.6838168,8.31618318 20.320971,8.32097101 20.7058543,8.70585426 L32,20 L32,24.0020869 C32,25.1055038 31.1107383,26 29.9982567,26 L2.00174332,26 C0.89621101,26 0,25.1017394 0,24.0020869 L0,20 Z" mask="url(#d)"/>
    </g>
    <g transform="translate(0 3)">
      <rect width="32" height="26" fill="#8EE39B" rx="2"/>
      <path fill="#1EC737" d="M0,20 L6.29028051,13.7097195 C6.68224776,13.3177522 7.31387329,13.3138733 7.70591205,13.7059121 L11,17 L19.2937851,8.7062149 C19.6838168,8.31618318 20.320971,8.32097101 20.7058543,8.70585426 L32,20 L32,24.0020869 C32,25.1055038 31.1107383,26 29.9982567,26 L2.00174332,26 C0.89621101,26 0,25.1017394 0,24.0020869 L0,20 Z"/>
      <circle cx="8" cy="7" r="3" fill="#FFFFFF"/>
      <path stroke="#8EE39B" stroke-linecap="round" stroke-linejoin="round" d="M11,16 L5.5,21.5 L11,16 Z"/>
    </g>
  </g>
</svg>

<svg xmlns="http://www.w3.org/2000/svg" xmlns:xlink="http://www.w3.org/1999/xlink" width="48" height="48"><defs><path id="a" d="M0 0h32v26H0V0zm0 0v20h23a3 3 0 0 0 3-3V0H0z"/><path id="c" d="M0 0h32v26H0V0zm0 0v20h23a3 3 0 0 0 3-3V0H0z"/></defs><g fill="none" fill-rule="evenodd"><g transform="translate(8 11)"><mask id="b" fill="#fff"><use xlink:href="#a"/></mask><rect width="32" height="26" fill="#8EE39B" mask="url(#b)" rx="2"/><path fill="#1EC737" d="m0 20 6.29-6.29a.999.999 0 0 1 1.416-.004L11 17l8.294-8.294a1.003 1.003 0 0 1 1.412 0L32 20v4.002C32 25.106 31.11 26 29.998 26H2.002A2.002 2.002 0 0 1 0 24.002V20z" mask="url(#b)"/></g><g transform="translate(16 19)"><mask id="d" fill="#fff"><use xlink:href="#c"/></mask><rect width="32" height="26" fill="#8EE39B" mask="url(#d)" rx="2"/><path fill="#1EC737" d="m0 20 6.29-6.29a.999.999 0 0 1 1.416-.004L11 17l8.294-8.294a1.003 1.003 0 0 1 1.412 0L32 20v4.002C32 25.106 31.11 26 29.998 26H2.002A2.002 2.002 0 0 1 0 24.002V20z" mask="url(#d)"/></g><g transform="translate(0 3)"><rect width="32" height="26" fill="#8EE39B" rx="2"/><path fill="#1EC737" d="m0 20 6.29-6.29a.999.999 0 0 1 1.416-.004L11 17l8.294-8.294a1.003 1.003 0 0 1 1.412 0L32 20v4.002C32 25.106 31.11 26 29.998 26H2.002A2.002 2.002 0 0 1 0 24.002V20z"/><circle cx="8" cy="7" r="3" fill="#FFF"/><path stroke="#8EE39B" stroke-linecap="round" stroke-linejoin="round" d="m11 16-5.5 5.5L11 16z"/></g></g></svg>
